!!!COM: Peter Cornelius
!!!CNT: Deutsch
!!!TXO: Deutsch
!!!OTL: Wie Lieb ich dich hab'
!!!LYR: Cornelius
!!!OPR: An Bertha
!!!OPS: Op. 15
!!!ONM: No. 2
!!!ENC: Ben Fuhrman
!!!YOR: CD Sheet Music, Mid-Romantic German Lieder: The Ultimate Collection.
!!!YOR: CD Sheet Music, LLC 2001
!!!ODT: 1865
!!NB: Only vocal melody encoded.
!!NB: First instance of melodic material only encoded.
!!created: 2/3/10 4:25PM
!!proofed and posted: 2/3/10 4:25PM
**kern	**silbe
*clef G2	*
*k[b-]	*
*M6/8	*
*MM[Allegretto con moto]	*
=2	=2
4r	.
8r	.
4r	.
{8cc	{Und
=3	=3
8ff	sa2n-
8ee	-gen
8a	die
8dd	Vo2-
8cc	-gel
8a	dir
=4	=4
8f	laut
8a	mei-
8bn	-ne
4.cc}	Lieb',}
=5	=5
8r	.
8r	.
{8ff	{ein
8ff	Wo2rt-
8ee-	-chen
8g	doch
=6	=6
8b-	heim-
8g	-lich
8ff	im
8ff	Her-
8ee-	-zen
8g	noch
=7	=7
4a	blieb,
8gg	ein
8gg	Wo2rt-
8ff	-chen
8ee-	doch
=8	=8
8ee-	heim-
8dd	-lich
8dd	im
[4.ff	Her-
=9	=9
8ff]	|
8cc	-zen
8b-	noch
4a}	blieb.}
8r	.
=10	=10
2.r	.
=11	=11
4r	.
8r	.
4r	.
{8cc	{Und
=12	=12
8ff	ko2nnt
8ee	ich
8a	mit
8dd	Per-
8cc	-len
8a	um-
=13	=13
8f	hu2l-
8g	-len
8f	dich
4.e}	ganz,}
=14	=14
8r	.
8r	.
{8ff#	{sie
8ff#	ko2nn-
8ee	-ten's
8a	nicht
=15	=15
8g#	sa-
8bn	-gen
8ff#	mit
8ff#	all'
8ee	ih-
8cc#	-rem
=16	=16
4a	Glanz,
8ff#	sie
8ff#	ko2nn-
8ee	-ten's
8dd	nicht
=17	=17
8dd	sa-
8bn	-gen
8ccn	mit
8ccn	all'
8ee-	ih-
8ddn	-rem
=18	=18
[4.dd	Glanz.
4dd]}	|}
8r	.
=19	=19
4r	.
8r	.
4r	.
{8cc	{Und
=20	=20
8ff#	streu-
8ee	-ten's
8a	die
8dd	Ro-
8cc	-sen
8a	im
=21	=21
8f	Duft
8e	vor
8f	dich
4g}	hin,}
8r	.
=22	=22
8r	.
8r	.
{8een	{sie
8een	wu2ss-
8dd	-ten's
8f	doch
=23	=23
8e	hald
8g	nur,
8ee	wie
8ee	gut
8dd	ich
8a	dir
=24	=24
4f	bin,
8dd	sie
8dd	wu2ss-
8cc	-ten's
8b	doch
=25	=25
8b-	halb
8a	nur,
8f	wie
[4.a	gut
=26	=26
8a]	|
8g	ich
8e	dir
4f}	bin.}
8r	.
=27	=27
2.r	.
=28	=28
4r	.
8r	.
4r	.
{8c	{Und
=29	=29
8f	rausch-
8g	-ten's
8cc	die
8f	Quel-
8g	-len,
8c	und
=30	=30
8f	draust
8g	es
8cc	der
4g}	Wind,}
{8g	{und
=31	=31
8a	fa2n-
8bn	-den
8ee	das
8a	Wort
8b	sie,
8e	das
=32	=32
8a	nim-
8bn	-mer
8ee	ich
4b}	find',}
{8bn	{ja
=33	=33
8bn	sa2n-
8cc#	-gen's
8dd#	die
8ff#	Ster-
8cc#	-ne
8a#	vom
=34	=34
8ee#	Him-
8dd#	-mel
8bn	he-
4g#	-rab,
8f#	sie
=35	=35
8f#	ko2nn-
8e#	-ten's
8g#	nicht
8f#	sin-
8a}	-gen,}
16r	.
{16f#	{wie
=36	=36
8f#	lieb
8e#	ich
8g#	dich
4f#	hab',
8a	sie
=37	=37
8a	ko2nn-
8g#	-ten's
8dd	nicht
8dd	sin-
8cc	-gen,
8a	wie
=38	=38
[2.ff	lieb
=39	=39
4.ff_	|
8ff]	|
8a	ich
8g	dich
=40	=40
4f}	hab'.}
8r	.
4r	.
8r	.
==	==
*-	*-
